picto/mobiles-prohibited.svg

<svg class="color-immutable" width="24" height="24" viewBox="0 0 24 24" fill="none" xmlns="http://www.w3.org/2000/svg"><path d="M0 22.5V1.5C0 0.675 0.675 0 1.5 0H22.5C23.325 0 24 0.675 24 1.5V22.5C24 23.325 23.325 24 22.5 24H1.5C0.675 24 0 23.325 0 22.5Z" fill="#2D327D"/><path d="M3.26097 16.182L3.25797 16.183C3.08097 16.602 3.00397 17.069 3.00097 17.465C2.99797 17.86 3.00097 21 3.00097 21H10.822C10.906 20.812 11.138 20.39 11.387 19.856C11.187 19.945 10.959 19.997 10.713 20.004C10.695 20.004 10.676 20.005 10.658 20.005C10.358 20.005 10.048 19.936 9.76197 19.806L6.25297 18.211C5.74897 17.982 5.36097 17.584 5.18897 17.118C5.05597 16.759 5.06497 16.384 5.21397 16.064L6.80097 12.652L7.67297 10.776C7.83797 10.271 7.69397 9.712 7.29597 9.349C7.23997 9.297 7.17497 9.255 7.10197 9.224C6.75697 9.078 6.35697 9.241 6.21097 9.587L3.26097 16.182Z" fill="white"/><path d="M12.516 20.968C12.071 20.963 11.715 20.598 11.72 20.154C11.725 19.709 12.09 19.352 12.535 19.358L14.013 19.357C14.457 19.352 14.822 19.708 14.828 20.153C14.833 20.597 14.477 20.963 14.032 20.967L12.516 20.968Z" fill="white"/><path d="M13.434 19.002C12.989 18.997 12.633 18.633 12.638 18.188C12.643 17.743 13.008 17.386 13.453 17.391H14.931C15.375 17.386 15.74 17.742 15.746 18.187C15.751 18.631 15.395 18.997 14.95 19.001L13.434 19.002Z" fill="white"/><path d="M21.201 20.14L16.2129 15.152H16.759C17.204 15.147 17.56 14.781 17.555 14.337C17.549 13.891 17.184 13.535 16.74 13.541H15.262C15.075 13.539 14.9039 13.601 14.766 13.706L14.4139 13.354L16.555 8.751C16.686 8.469 16.67 8.14 16.51 7.823C16.347 7.502 16.055 7.233 15.687 7.066L12.177 5.471C11.936 5.361 11.675 5.303 11.425 5.303H11.38C10.886 5.317 10.4879 5.546 10.3149 5.917L9.25595 8.195L3.85895 2.798L2.79895 3.859L8.58295 9.643L5.52795 16.21C5.41695 16.449 5.41195 16.722 5.51395 16.998C5.65395 17.377 5.97595 17.704 6.39595 17.895L9.90495 19.49C10.146 19.599 10.406 19.657 10.6569 19.657L10.702 19.656C11.1969 19.642 11.595 19.413 11.767 19.043L13.74 14.801L14.376 15.437H14.36C13.915 15.431 13.551 15.789 13.545 16.234C13.541 16.678 13.8969 17.042 14.341 17.048H15.856C15.897 17.048 15.936 17.043 15.975 17.037L20.139 21.201L21.201 20.14ZM10.976 6.544L15.594 8.62L13.728 12.667L9.91195 8.851L10.976 6.544ZM9.19795 17.75C9.07895 17.997 8.77695 18.099 8.52495 17.979C8.27295 17.858 8.16595 17.561 8.28495 17.314C8.40495 17.067 8.70495 16.965 8.95695 17.085C9.20995 17.205 9.31695 17.502 9.19795 17.75ZM11.5719 17.342L6.95395 15.265L9.24195 10.303L13.058 14.119L11.5719 17.342Z" fill="white"/><path d="M3.85923 2.79831L2.79858 3.85896L20.1402 21.2006L21.2009 20.1399L3.85923 2.79831Z" fill="#EB0000"/></svg>

<svg class="color-immutable" width="24" height="24" viewBox="0 0 24 24" fill="none" xmlns="http://www.w3.org/2000/svg"><g clip-path="url(#a)"><path d="M0 22.5v-21C0 .675.675 0 1.5 0h21c.825 0 1.5.675 1.5 1.5v21c0 .825-.675 1.5-1.5 1.5h-21C.675 24 0 23.325 0 22.5Z" fill="#2D327D"/><path d="m3.261 16.182-.003.001a3.459 3.459 0 0 0-.257 1.282c-.003.395 0 3.535 0 3.535h7.821c.084-.188.316-.61.565-1.144a1.78 1.78 0 0 1-.674.148l-.055.001c-.3 0-.61-.069-.896-.199l-3.509-1.595c-.504-.229-.892-.627-1.064-1.093a1.362 1.362 0 0 1 .025-1.054l1.587-3.412.872-1.876a1.36 1.36 0 0 0-.377-1.427.68.68 0 0 0-1.085.238l-2.95 6.595ZM12.516 20.968a.805.805 0 1 1 .019-1.61l1.478-.001a.805.805 0 1 1 .019 1.61l-1.516.001ZM13.434 19.002a.805.805 0 1 1 .019-1.611h1.478a.805.805 0 1 1 .019 1.61l-1.516.001Z" fill="#fff"/><path d="m21.201 20.14-4.988-4.988h.546a.806.806 0 0 0-.019-1.611h-1.478a.8.8 0 0 0-.496.165l-.352-.352 2.141-4.603c.131-.282.115-.611-.045-.928a1.699 1.699 0 0 0-.823-.757l-3.51-1.595a1.83 1.83 0 0 0-.752-.168h-.045c-.494.014-.892.243-1.065.614L9.256 8.195 3.859 2.798l-1.06 1.061 5.784 5.784-3.055 6.567a1.008 1.008 0 0 0-.014.788c.14.379.462.706.882.897l3.509 1.595c.241.109.501.167.752.167l.045-.001c.495-.014.893-.243 1.065-.613l1.973-4.242.636.636h-.016a.806.806 0 0 0-.019 1.611h1.515c.041 0 .08-.005.119-.011l4.164 4.164 1.062-1.061ZM10.976 6.544l4.618 2.076-1.866 4.047-3.816-3.816 1.064-2.307ZM9.198 17.75a.505.505 0 0 1-.673.229.499.499 0 0 1-.24-.665.504.504 0 0 1 .672-.229c.253.12.36.417.24.665Zm2.374-.408-4.618-2.077 2.288-4.962 3.816 3.816-1.486 3.223Z" fill="#fff"/><path d="M3.86 2.798 2.798 3.86 20.14 21.201l1.06-1.061L3.86 2.798Z" fill="#EB0000"/></g><defs><clipPath id="a"><path fill="#fff" d="M0 0h24v24H0z"/></clipPath></defs></svg>
